image/logo-2.svg

<svg width="186" height="56" viewBox="0 0 186 56" fill="none" xmlns="http://www.w3.org/2000/svg">
<path d="M9.23403 18.9209C6.93955 18.9502 4.75026 19.8795 3.14556 21.5053C1.54085 23.1311 0.651488 25.3209 0.672207 27.5953C0.636053 28.7274 0.831497 29.8551 1.24676 30.9104C1.66203 31.9657 2.28852 32.9267 3.0885 33.7356C3.88847 34.5445 4.84538 35.1846 5.90155 35.6171C6.95773 36.0497 8.09132 36.2659 9.23403 36.2526C10.3758 36.2527 11.5062 36.028 12.5597 35.5916C13.6132 35.1552 14.5687 34.5157 15.3708 33.7103C16.1729 32.9049 16.8057 31.9496 17.2323 30.8999C17.659 29.8502 17.871 28.7269 17.8562 27.5953C17.87 25.3127 16.9701 23.1178 15.3539 21.4918C13.7376 19.8657 11.5369 18.9412 9.23403 18.9209ZM16.606 27.5953C16.6398 28.5727 16.4736 29.5468 16.1175 30.4589C15.7614 31.371 15.2228 32.2022 14.534 32.9024C13.8452 33.6027 13.0206 34.1576 12.1097 34.5336C11.1989 34.9096 10.2207 35.099 9.23403 35.0903C8.24924 35.0979 7.27311 34.9076 6.36463 34.5308C5.45614 34.154 4.63416 33.5985 3.94834 32.898C3.26253 32.1975 2.72712 31.3664 2.37446 30.455C2.02181 29.5435 1.85923 28.5707 1.89656 27.5953C1.86262 26.6161 2.02959 25.6402 2.38736 24.7269C2.74513 23.8135 3.28624 22.9817 3.97792 22.2817C4.6696 21.5817 5.49744 21.0282 6.41129 20.6547C7.32514 20.2812 8.30598 20.0955 9.29438 20.1088C10.2759 20.1059 11.2479 20.2994 12.1522 20.6776C13.0565 21.0559 13.8745 21.6111 14.5572 22.3101C15.2399 23.0091 15.7732 23.8375 16.1252 24.7457C16.4773 25.6538 16.6408 26.623 16.606 27.5953Z" fill="#F9F5F4"/>
<path d="M29.9875 27.2966C30.4257 26.8244 30.7625 26.2687 30.9774 25.6634C31.1924 25.0581 31.2809 24.4159 31.2377 23.7756C31.186 20.793 29.1511 18.9385 25.9264 18.9385H21.0204V36.2616H22.2706V28.7153H24.5469L30.0651 35.7232L30.4962 36.2616H32.0654L26.0299 28.6726C27.4788 28.7371 28.8967 28.2441 29.9875 27.2966ZM22.2275 20.1264H25.935C28.5217 20.1264 30.0478 21.4938 30.0478 23.7842C30.0478 26.348 28.6769 27.5359 25.8402 27.5359H22.2706L22.2275 20.1264Z" fill="#F9F5F4"/>
<path d="M34.1776 20.1345H38.4457V36.0902H39.6614V20.1345H43.9294V18.9209H34.1776V20.1345Z" fill="#F9F5F4"/>
<path d="M46.844 36.2616H55.1558V35.0309H48.0856V28.2196H55.0609V26.9804H48.0856V20.1691H55.1558V18.9385H46.844V36.2616Z" fill="#F9F5F4"/>
<path d="M85.0143 19.0576V18.9209H83.3244L77.0302 36.2526H78.3838L80.5653 29.9882H87.6872L89.9721 36.2526H91.3171C91.3171 36.2526 88.0838 27.5782 85.0143 19.0576ZM87.3078 28.8516H81.0136L84.1262 20.1686L87.3078 28.8516Z" fill="#F9F5F4"/>
<path d="M133.023 27.2966C133.47 26.829 133.816 26.2751 134.039 25.6694C134.261 25.0637 134.356 24.4191 134.316 23.7756C134.316 20.793 132.238 18.9385 129.005 18.9385H124.073V36.2616H125.314V28.7153H127.591L133.54 36.2616H135.083L129.099 28.6726C130.537 28.7282 131.941 28.2358 133.023 27.2966ZM128.841 27.5359H125.271V20.1264H128.936C131.522 20.1264 133.057 21.4938 133.057 23.7842C133.057 26.3053 131.678 27.5359 128.841 27.5359Z" fill="#F9F5F4"/>
<path d="M146.956 18.9209C144.661 18.948 142.47 19.8765 140.865 21.5028C139.26 23.1291 138.371 25.3203 138.394 27.5953C138.358 28.7274 138.553 29.8551 138.969 30.9104C139.384 31.9657 140.01 32.9267 140.81 33.7356C141.61 34.5445 142.567 35.1846 143.623 35.6171C144.68 36.0497 145.813 36.2659 146.956 36.2526C148.098 36.2527 149.228 36.028 150.282 35.5916C151.335 35.1552 152.291 34.5157 153.093 33.7103C153.895 32.9049 154.528 31.9496 154.954 30.8999C155.381 29.8502 155.593 28.7269 155.578 27.5953C155.592 25.3127 154.692 23.1178 153.076 21.4918C151.46 19.8657 149.259 18.9412 146.956 18.9209ZM154.319 27.5953C154.319 29.5287 153.544 31.3829 152.165 32.75C150.786 34.1172 148.915 34.8852 146.965 34.8852C145.014 34.8852 143.143 34.1172 141.764 32.75C140.385 31.3829 139.61 29.5287 139.61 27.5953C139.61 25.6619 140.385 23.8077 141.764 22.4405C143.143 21.0734 145.014 20.3054 146.965 20.3054C148.915 20.3054 150.786 21.0734 152.165 22.4405C153.544 23.8077 154.319 25.6619 154.319 27.5953Z" fill="#F9F5F4"/>
<path d="M169.46 31.4415C169.46 33.8259 167.442 35.0737 165.442 35.0737C163.442 35.0737 161.441 33.8259 161.441 31.4415V18.9385H160.182V31.4415C160.182 34.7575 162.898 36.2616 165.425 36.2616C167.951 36.2616 170.684 34.6036 170.684 31.4415V18.9385H169.443L169.46 31.4415Z" fill="#F9F5F4"/>
<path d="M180.013 18.9211H175.383V36.2528H176.564V29.2706H180.013C180.703 29.299 181.392 29.1863 182.036 28.9396C182.681 28.6928 183.267 28.3173 183.759 27.8363C184.251 27.3554 184.637 26.7793 184.895 26.1438C185.152 25.5084 185.275 24.8273 185.255 24.1428C185.277 23.4536 185.156 22.7672 184.9 22.1258C184.645 21.4844 184.26 20.9014 183.769 20.4126C183.278 19.9238 182.692 19.5394 182.046 19.2829C181.4 19.0265 180.709 18.9033 180.013 18.9211ZM184.031 24.2112C184.048 24.7336 183.954 25.2536 183.756 25.7381C183.559 26.2226 183.262 26.661 182.884 27.0253C182.505 27.3896 182.055 27.6717 181.561 27.8538C181.066 28.0358 180.539 28.1138 180.013 28.0826H176.564V20.0663H180.013C180.551 20.0716 181.083 20.1839 181.576 20.3967C182.07 20.6095 182.515 20.9183 182.886 21.3049C183.256 21.6915 183.545 22.1479 183.734 22.6472C183.924 23.1464 184.01 23.6783 183.988 24.2112H184.031Z" fill="#F9F5F4"/>
<path d="M65.6748 27.9801V29.1937H73.2796C73.0434 30.8349 72.2137 32.3351 70.9448 33.4152C69.6759 34.4952 68.0543 35.0815 66.3818 35.0649C64.4219 35.0334 62.5541 34.2349 61.186 32.8435C59.8178 31.4522 59.0603 29.581 59.0788 27.6382C59.075 26.3695 59.3879 25.1195 59.9897 23.9997C60.5914 22.8798 61.4633 21.9249 62.5277 21.2201C63.0616 20.8776 63.6423 20.6128 64.2521 20.4338C64.308 20.4117 64.3657 20.3945 64.4246 20.3825C64.6713 20.3144 64.9218 20.2602 65.1747 20.2202L65.4248 20.1774C65.7533 20.1325 66.0846 20.1097 66.4163 20.1091C66.7767 20.1095 67.1366 20.1323 67.4941 20.1774H67.7528C68.0876 20.2235 68.4188 20.2921 68.7443 20.3825C69.0687 20.4762 69.3857 20.5933 69.6928 20.7329L69.8652 20.8098C70.1648 20.9533 70.453 21.119 70.7274 21.3055L71.0206 21.5192C71.2016 21.6559 71.3741 21.8012 71.5465 21.955C71.7274 22.1144 71.9001 22.2827 72.0639 22.4593H73.6245C73.4228 22.1734 73.201 21.9021 72.9606 21.6474L72.8226 21.5106C72.5732 21.2529 72.3083 21.0104 72.0294 20.7842L71.8914 20.6731C71.6171 20.4558 71.3291 20.256 71.0292 20.0749L70.7188 19.8954C70.6747 19.8666 70.6286 19.8409 70.5809 19.8185C70.3012 19.6764 70.0133 19.5508 69.7186 19.4425L69.5807 19.3997C69.319 19.3048 69.0511 19.2277 68.7788 19.169L68.5632 19.1177C68.302 19.0577 68.037 19.0149 67.77 18.9895H67.52C67.1751 18.9895 66.8129 18.9297 66.4422 18.9297C66.0965 18.9321 65.7511 18.9521 65.4075 18.9895H65.2265C64.9367 19.0228 64.6489 19.0713 64.3642 19.1348H64.2608C63.969 19.2087 63.6813 19.2971 63.3985 19.3997C63.1022 19.5039 62.814 19.6296 62.5363 19.7758C61.1121 20.5301 59.9227 21.6554 59.0961 23.0304C58.2696 24.4054 57.8373 25.9779 57.8458 27.5784C57.8287 28.7036 58.036 29.821 58.4557 30.8666C58.8754 31.9122 59.4994 32.8653 60.2917 33.6713C61.084 34.4773 62.0291 35.1202 63.0727 35.5632C64.1163 36.0062 65.238 36.2406 66.3732 36.2528C67.4507 36.2807 68.5227 36.092 69.5247 35.6981C70.5266 35.3043 71.4377 34.7135 72.2031 33.9612C72.9685 33.209 73.5723 32.3109 73.9781 31.3212C74.3839 30.3314 74.5833 29.2705 74.5643 28.2023V27.9972L65.6748 27.9801Z" fill="#F9F5F4"/>
<path d="M111.898 27.9802V29.1938H119.503C119.267 30.835 118.437 32.3352 117.168 33.4153C115.899 34.4953 114.278 35.0816 112.605 35.065C111.441 35.0384 110.298 34.7448 109.267 34.2073C108.236 33.6698 107.345 32.9029 106.663 31.9668C105.981 31.0306 105.527 29.9507 105.336 28.8115C105.146 27.6724 105.224 26.505 105.565 25.4008C105.906 24.2967 106.5 23.2858 107.301 22.4474C108.102 21.609 109.088 20.9658 110.182 20.5683C111.275 20.1707 112.447 20.0297 113.605 20.1561C114.763 20.2826 115.876 20.6731 116.856 21.2971C117.092 21.4556 117.32 21.6268 117.537 21.8099C117.781 22.0145 118.009 22.2374 118.218 22.4765H119.779C119.573 22.178 119.348 21.8925 119.106 21.6218L118.977 21.4851L118.813 21.3313C118.658 21.1774 118.511 21.0236 118.348 20.8869C118.184 20.7501 117.882 20.5108 117.641 20.3399L117.546 20.2801C117.303 20.1157 117.049 19.9672 116.787 19.8357H116.735C115.442 19.199 114.014 18.8795 112.571 18.9042C111.428 18.9107 110.298 19.1423 109.247 19.5855C108.195 20.0287 107.243 20.6746 106.446 21.4856C105.648 22.2967 105.022 23.2568 104.602 24.3101C104.182 25.3635 103.978 26.489 104 27.6213C103.991 28.745 104.206 29.8595 104.632 30.9009C105.058 31.9424 105.687 32.8903 106.483 33.6905C107.279 34.4906 108.227 35.1273 109.271 35.5641C110.316 36.0008 111.437 36.2291 112.571 36.2358C113.65 36.2638 114.723 36.0746 115.726 35.6797C116.729 35.2848 117.641 34.6924 118.407 33.9383C119.173 33.1843 119.776 32.2841 120.181 31.2924C120.585 30.3006 120.783 29.2378 120.762 28.1682V27.9631L111.898 27.9802Z" fill="#F9F5F4"/>
<path d="M178.867 0H172.504H166.141H159.778H153.415H147.043H140.68H134.317H127.953H121.59H115.227H108.864H102.501H96.1376H89.7744H83.4026H77.0394H70.6763H64.3131H57.9499H51.5868H45.2236H38.8605H32.4973H26.1255H19.7623H13.3992H7.03602H0.672852V6.30707V12.6141H7.03602V6.30707H13.3992H19.7623H26.1255H32.4973H38.8605H45.2236H51.5868H57.9499H64.3131H70.6763H77.0394H83.4026H89.7744H96.1376H102.501H108.864H115.227H121.59H127.953H134.317H140.68H147.043H153.415H159.778H166.141H172.504H178.867V12.6141H185.23V6.30707V0H178.867Z" fill="#F9F5F4"/>
<path d="M7.03553 55.1742H13.3987H19.7619H26.125H32.4968H38.86H45.2231H51.5863H57.9495H64.3126H70.6758H77.0389H83.4021H89.7739H96.1371H102.5H108.863H115.227H121.59H127.953H134.316H140.679H147.042H153.414H159.777H166.14H172.504H178.867H185.23V48.8671V42.5601H178.867V48.8671H172.504H166.14H159.777H153.414H147.042H140.679H134.316H127.953H121.59H115.227H108.863H102.5H96.1371H89.7739H83.4021H77.0389H70.6758H64.3126H57.9495H51.5863H45.2231H38.86H32.4968H26.125H19.7619H13.3987H7.03553V42.5601H0.672363V48.8671V55.1742H7.03553Z" fill="#F9F5F4"/>
</svg>

<?xml version="1.0" encoding="UTF-8" standalone="no"?>
<svg width="186" xmlns="http://www.w3.org/2000/svg" viewBox="0 0 186 56" height="56">
 <path d="m9.234 18.921c-2.2944 0.029-4.4837 0.959-6.0884 2.584-1.6048 1.626-2.4941 3.816-2.4734 6.09-0.03615 1.132 0.1593 2.26 0.5746 3.315 0.4152 1.056 1.0417 2.017 1.8417 2.826 0.8 0.808 1.7569 1.449 2.8131 1.881 1.0561 0.433 2.1897 0.649 3.3324 0.636 1.142 0 2.272-0.225 3.326-0.661 1.053-0.437 2.009-1.076 2.811-1.882 0.802-0.805 1.435-1.76 1.861-2.81 0.427-1.05 0.639-2.173 0.624-3.305 0.014-2.282-0.886-4.477-2.502-6.103s-3.817-2.551-6.12-2.571zm7.372 8.674c0.034 0.978-0.132 1.952-0.488 2.864-0.357 0.912-0.895 1.743-1.584 2.443-0.689 0.701-1.513 1.256-2.424 1.632s-1.889 0.565-2.876 0.556c-0.9848 0.008-1.9609-0.182-2.8694-0.559s-1.7304-0.933-2.4163-1.633c-0.6858-0.7-1.2212-1.532-1.5738-2.443-0.3527-0.911-0.5153-1.884-0.4779-2.86-0.034-0.979 0.133-1.955 0.4908-2.868 0.3577-0.913 0.8988-1.745 1.5905-2.445s1.5195-1.254 2.4334-1.627c0.9138-0.374 1.8947-0.559 2.8831-0.546 0.9816-0.003 1.9536 0.19 2.8576 0.569 0.904 0.378 1.722 0.933 2.405 1.632s1.216 1.528 1.568 2.436 0.516 1.877 0.481 2.849z" fill="#F9F5F4"/>
 <path d="m29.988 27.297c0.438-0.473 0.774-1.028 0.989-1.634 0.215-0.605 0.304-1.247 0.261-1.887-0.052-2.983-2.087-4.838-5.312-4.838h-4.906v17.324h1.251v-7.547h2.276l5.518 7.008 0.431 0.539h1.569l-6.035-7.589c1.449 0.064 2.867-0.429 3.958-1.376zm-7.76-7.171h3.707c2.587 0 4.113 1.368 4.113 3.658 0 2.564-1.371 3.752-4.208 3.752h-3.569l-0.043-7.41z" fill="#F9F5F4"/>
 <path d="m34.178 20.134h4.268v15.956h1.215v-15.956h4.268v-1.213h-9.751v1.213z" fill="#F9F5F4"/>
 <path d="m46.844 36.262h8.312v-1.231h-7.07v-6.811h6.975v-1.24h-6.975v-6.811h7.07v-1.231h-8.312v17.324z" fill="#F9F5F4"/>
 <path d="m85.014 19.058v-0.137h-1.69l-6.294 17.332h1.354l2.181-6.265h7.122l2.285 6.265h1.345s-3.233-8.675-6.303-17.195zm2.294 9.794h-6.294l3.112-8.683 3.182 8.683z" fill="#F9F5F4"/>
 <path d="m133.02 27.297c0.45-0.468 0.8-1.022 1.02-1.628 0.22-0.605 0.32-1.25 0.28-1.893 0-2.983-2.08-4.838-5.32-4.838h-4.93v17.324h1.24v-7.547h2.28l5.95 7.547h1.54l-5.98-7.589c1.44 0.055 2.84-0.437 3.92-1.376zm-4.18 0.239h-3.57v-7.41h3.67c2.58 0 4.12 1.368 4.12 3.658 0 2.521-1.38 3.752-4.22 3.752z" fill="#F9F5F4"/>
 <path d="m146.96 18.921c-2.3 0.027-4.49 0.955-6.1 2.582-1.6 1.626-2.49 3.817-2.47 6.092-0.03 1.132 0.16 2.26 0.58 3.315 0.41 1.056 1.04 2.017 1.84 2.826 0.8 0.808 1.76 1.449 2.81 1.881 1.06 0.433 2.19 0.649 3.34 0.636 1.14 0 2.27-0.225 3.32-0.661 1.06-0.437 2.01-1.076 2.81-1.882 0.81-0.805 1.44-1.76 1.86-2.81 0.43-1.05 0.64-2.173 0.63-3.305 0.01-2.282-0.89-4.477-2.5-6.103-1.62-1.626-3.82-2.551-6.12-2.571zm7.36 8.674c0 1.934-0.78 3.788-2.16 5.155-1.37 1.367-3.24 2.135-5.2 2.135-1.95 0-3.82-0.768-5.2-2.135s-2.15-3.221-2.15-5.155c0-1.933 0.77-3.787 2.15-5.155 1.38-1.367 3.25-2.135 5.2-2.135 1.96 0 3.83 0.768 5.2 2.135 1.38 1.368 2.16 3.222 2.16 5.155z" fill="#F9F5F4"/>
 <path d="m169.46 31.442c0 2.384-2.02 3.632-4.02 3.632s-4-1.248-4-3.632v-12.504h-1.26v12.504c0 3.316 2.72 4.82 5.24 4.82 2.53 0 5.26-1.658 5.26-4.82v-12.504h-1.24l0.02 12.504z" fill="#F9F5F4"/>
 <path d="m180.01 18.921h-4.63v17.332h1.18v-6.982h3.45c0.69 0.028 1.38-0.085 2.03-0.331 0.64-0.247 1.23-0.623 1.72-1.104s0.88-1.057 1.14-1.692c0.25-0.636 0.38-1.317 0.36-2.001 0.02-0.689-0.1-1.376-0.36-2.017-0.26-0.642-0.64-1.225-1.13-1.713-0.49-0.489-1.08-0.874-1.72-1.13-0.65-0.257-1.34-0.38-2.04-0.362zm4.02 5.29c0.02 0.523-0.08 1.043-0.27 1.527-0.2 0.485-0.5 0.923-0.88 1.287-0.38 0.365-0.82 0.647-1.32 0.829-0.49 0.182-1.02 0.26-1.55 0.229h-3.45v-8.017h3.45c0.54 0.006 1.07 0.118 1.57 0.331 0.49 0.213 0.94 0.521 1.31 0.908s0.65 0.843 0.84 1.342 0.28 1.031 0.26 1.564h0.04z" fill="#F9F5F4"/>
 <path d="m65.675 27.98v1.214h7.605c-0.237 1.641-1.066 3.141-2.335 4.221s-2.891 1.667-4.563 1.65c-1.96-0.032-3.828-0.83-5.196-2.221-1.368-1.392-2.126-3.263-2.107-5.206-0.004-1.268 0.309-2.518 0.911-3.638 0.601-1.12 1.473-2.075 2.538-2.78 0.534-0.342 1.114-0.607 1.724-0.786 0.056-0.022 0.114-0.04 0.173-0.052 0.246-0.068 0.497-0.122 0.75-0.162l0.25-0.043c0.328-0.045 0.66-0.067 0.991-0.068 0.361 0.001 0.721 0.023 1.078 0.068h0.259c0.335 0.047 0.666 0.115 0.991 0.205 0.325 0.094 0.642 0.211 0.949 0.351l0.172 0.077c0.3 0.143 0.588 0.309 0.862 0.496l0.294 0.213c0.181 0.137 0.353 0.282 0.525 0.436 0.181 0.159 0.354 0.328 0.518 0.504h1.56c-0.201-0.286-0.423-0.557-0.663-0.812l-0.138-0.136c-0.25-0.258-0.515-0.501-0.794-0.727l-0.138-0.111c-0.274-0.217-0.562-0.417-0.862-0.598l-0.31-0.18c-0.044-0.028-0.09-0.054-0.138-0.077-0.28-0.142-0.568-0.267-0.862-0.376l-0.138-0.042c-0.262-0.095-0.53-0.172-0.802-0.231l-0.216-0.051c-0.261-0.06-0.526-0.103-0.793-0.128h-0.25c-0.345 0-0.707-0.06-1.078-0.06-0.346 0.002-0.691 0.022-1.034 0.06h-0.182c-0.289 0.033-0.577 0.081-0.862 0.145h-0.103c-0.292 0.074-0.58 0.162-0.863 0.265-0.296 0.104-0.584 0.23-0.862 0.376-1.424 0.754-2.613 1.879-3.44 3.254-0.826 1.375-1.259 2.948-1.25 4.548-0.017 1.126 0.19 2.243 0.61 3.289 0.419 1.045 1.043 1.998 1.836 2.804 0.792 0.806 1.737 1.449 2.781 1.892 1.043 0.443 2.165 0.678 3.3 0.69 1.078 0.028 2.15-0.161 3.152-0.555s1.913-0.984 2.678-1.737c0.765-0.752 1.369-1.65 1.775-2.64s0.605-2.051 0.586-3.119v-0.205l-8.889-0.017z" fill="#F9F5F4"/>
 <path d="m111.9 27.98v1.214h7.6c-0.23 1.641-1.06 3.141-2.33 4.221s-2.89 1.667-4.57 1.65c-1.16-0.027-2.3-0.32-3.33-0.858-1.03-0.537-1.93-1.304-2.61-2.24s-1.13-2.016-1.32-3.155c-0.19-1.14-0.12-2.307 0.22-3.411 0.35-1.104 0.94-2.115 1.74-2.954 0.8-0.838 1.79-1.481 2.88-1.879 1.1-0.397 2.27-0.538 3.42-0.412 1.16 0.127 2.28 0.517 3.26 1.141 0.23 0.159 0.46 0.33 0.68 0.513 0.24 0.204 0.47 0.427 0.68 0.666h1.56c-0.21-0.298-0.43-0.584-0.67-0.854l-0.13-0.137-0.17-0.154c-0.15-0.154-0.3-0.307-0.46-0.444-0.17-0.137-0.47-0.376-0.71-0.547l-0.09-0.06c-0.25-0.164-0.5-0.313-0.76-0.444h-0.05c-1.3-0.637-2.73-0.956-4.17-0.932-1.14 0.007-2.27 0.238-3.32 0.682-1.05 0.443-2.01 1.089-2.8 1.9-0.8 0.811-1.43 1.771-1.85 2.824-0.42 1.054-0.62 2.179-0.6 3.311-0.01 1.124 0.21 2.239 0.63 3.28 0.43 1.041 1.06 1.989 1.85 2.789 0.8 0.801 1.75 1.437 2.79 1.874 1.05 0.437 2.17 0.665 3.3 0.672 1.08 0.028 2.15-0.161 3.16-0.556 1-0.395 1.91-0.988 2.68-1.742 0.76-0.754 1.37-1.654 1.77-2.646 0.4-0.991 0.6-2.054 0.58-3.124v-0.205l-8.86 0.017z" fill="#F9F5F4"/>
 <path d="m178.87 0h-178.16v12.614h6.3632v-6.3069h171.83v6.3069h6.36v-12.614h-6.36z" fill="#F9F5F4"/>
 <path d="m7.0355 55.174h178.19v-12.614h-6.36v6.307h-171.8v-6.307h-6.3631v12.614h6.3631z" fill="#F9F5F4"/>
</svg>
